icons/face-smile.svg

<svg width="24" height="24" viewBox="0 0 24 24" fill="none" xmlns="http://www.w3.org/2000/svg">
<path fill-rule="evenodd" clip-rule="evenodd" d="M12 4C7.58172 4 4 7.58172 4 12C4 16.4183 7.58172 20 12 20C16.4183 20 20 16.4183 20 12C20 7.58172 16.4183 4 12 4ZM2 12C2 6.47715 6.47715 2 12 2C17.5228 2 22 6.47715 22 12C22 17.5228 17.5228 22 12 22C6.47715 22 2 17.5228 2 12ZM8 10C8 9.44772 8.44772 9 9 9H9.01C9.56228 9 10.01 9.44772 10.01 10C10.01 10.5523 9.56228 11 9.01 11H9C8.44772 11 8 10.5523 8 10ZM14 10C14 9.44772 14.4477 9 15 9H15.01C15.5623 9 16.01 9.44772 16.01 10C16.01 10.5523 15.5623 11 15.01 11H15C14.4477 11 14 10.5523 14 10ZM15.1999 14.2857C15.5943 14.6722 15.6008 15.3054 15.2143 15.6999C14.7953 16.1275 14.2952 16.4672 13.7433 16.6991C13.1913 16.9311 12.5987 17.0505 12 17.0505C11.4013 17.0505 10.8087 16.9311 10.2567 16.6991C9.70481 16.4672 9.2047 16.1275 8.78571 15.6999C8.3992 15.3054 8.40566 14.6722 8.80015 14.2857C9.19464 13.8992 9.82777 13.9057 10.2143 14.3001C10.4471 14.5377 10.7249 14.7265 11.0315 14.8553C11.3381 14.9841 11.6674 15.0505 12 15.0505C12.3326 15.0505 12.6619 14.9841 12.9685 14.8553C13.2751 14.7265 13.5529 14.5377 13.7857 14.3001C14.1722 13.9057 14.8054 13.8992 15.1999 14.2857Z" fill="black"/>
</svg>

<svg
  width="24"
  height="24"
  viewBox="0 0 24 24"
  xmlns="http://www.w3.org/2000/svg"
>
  <path
    fill-rule="evenodd"
    clip-rule="evenodd"
    d="M12 4a8 8 0 1 0 0 16 8 8 0 0 0 0-16zM2 12C2 6.477 6.477 2 12 2s10 4.477 10 10-4.477 10-10 10S2 17.523 2 12zm6-2a1 1 0 0 1 1-1h.01a1 1 0 0 1 0 2H9a1 1 0 0 1-1-1zm6 0a1 1 0 0 1 1-1h.01a1 1 0 1 1 0 2H15a1 1 0 0 1-1-1zm1.2 4.286a1 1 0 0 1 .014 1.414 4.5 4.5 0 0 1-6.428 0 1 1 0 0 1 1.428-1.4 2.5 2.5 0 0 0 3.572 0 1 1 0 0 1 1.414-.014z"
  />
</svg>
